X: 298
T: Froggie on the Carport (R-165)
M: C
L: 1/8
R: reel
K: A
cB|"A"Aceg aga2|Aceg aga2|"G"edef =gfgf|edef =gedB|
"A"Aceg aga2 |Aceg aga2 |"E"efed cAB2|"A"A4 A2:|
cB|:"A"ABcd efec|"D"d3e d2dB |"G"=GAB=c dedB|"C"=c3d c2cB|
"A"ABcd ecAe|a2g2 "G"=g4 |"E"efed cAB2 |"A"A4 A2:||
%%text Also called Doggie on the Carpet or Doggie on the Carport.


